;FLAVOR:Marlin
;TIME:15833
;Filament used: 15.3934m
;Layer height: 0.16
;MINX:57.966
;MINY:71.872
;MINZ:0.2
;MAXX:153.121
;MAXY:148.128
;MAXZ:22.88
;TARGET_MACHINE.NAME:Creality Ender-5
;Generated with Cura_SteamEngine 5.7.1
M140 S70
M105
M190 S70
M104 S215
M105
M109 S215
M82 ;absolute extrusion mode
M201 X500.00 Y500.00 Z100.00 E5000.00 ;Setup machine max acceleration
M203 X500.00 Y500.00 Z10.00 E50.00 ;Setup machine max feedrate
M204 P500.00 R1000.00 T500.00 ;Setup Print/Retract/Travel acceleration
M205 X8.00 Y8.00 Z0.40 E5.00 ;Setup Jerk
M220 S100 ;Reset Feedrate
M221 S100 ;Reset Flowrate

G28 ;Home

G92 E0 ;Reset Extruder
G1 Z2.0 F3000 ;Move Z Axis up
G1 X10.1 Y20 Z0.28 F5000.0 ;Move to start position
G1 X10.1 Y200.0 Z0.28 F1500.0 E15 ;Draw the first line
G1 X10.4 Y200.0 Z0.28 F5000.0 ;Move to side a little
G1 X10.4 Y20 Z0.28 F1500.0 E30 ;Draw the second line
G92 E0 ;Reset Extruder
G1 Z2.0 F3000 ;Move Z Axis up

G92 E0
G92 E0
G1 F1500 E-5
;LAYER_COUNT:131
;LAYER:0
M107
G0 F6000 X63.164 Y75.104 Z0.2
;TYPE:SKIRT
G1 F1500 E0
G1 F1200 X63.535 Y74.811 E0.02359
G1 X64.523 Y74.105 E0.08417
G1 X65.302 Y73.638 E0.12948
G1 X66.554 Y73.031 E0.1989
G1 X67.723 Y72.591 E0.26121
G1 X69.061 Y72.22 E0.33049
G1 X69.953 Y72.051 E0.37578
G1 X71.736 Y71.898 E0.46506
G1 X72.936 Y71.878 E0.52494
G1 X98.606 Y71.877 E1.80562
G1 X99.816 Y71.901 E1.866
G1 X100.812 Y71.942 E1.91573
G1 X101.83 Y72 E1.9666
G1 X104.346 Y72.069 E2.09217
G1 X106.714 Y72.068 E2.21031
G1 X109.315 Y71.994 E2.34013
G1 X111.32 Y71.891 E2.44029
G1 X111.922 Y71.877 E2.47033
G1 X138.327 Y71.872 E3.78768
G1 X139.318 Y71.888 E3.83713
G1 X140.451 Y71.965 E3.89379
G1 X141.684 Y72.16 E3.95607
G1 X142.271 Y72.289 E3.98605
G1 X143.398 Y72.598 E4.04435
G1 X144.35 Y72.948 E4.09496
G1 X145.542 Y73.51 E4.1607
G1 X146.801 Y74.269 E4.23405
G1 X147.121 Y74.49 E4.25345
G1 X148.126 Y75.267 E4.31683
G1 X149.022 Y76.105 E4.37803
G1 X150.129 Y77.377 E4.46216
G1 X150.933 Y78.537 E4.53257
G1 X151.559 Y79.655 E4.5965
G1 X151.848 Y80.251 E4.62954
G1 X152.243 Y81.184 E4.68009
G1 X152.637 Y82.402 E4.74396
G1 X152.866 Y83.391 E4.79461
G1 X153.053 Y84.721 E4.86161
G1 X153.099 Y85.472 E4.89915
G1 X153.113 Y86.124 E4.93169
G1 X153.121 Y133.404 E7.29049
G1 X153.105 Y134.413 E7.34084
G1 X153.048 Y135.372 E7.38877
G1 X152.844 Y136.738 E7.45767
G1 X152.593 Y137.767 E7.51052
G1 X152.259 Y138.776 E7.56354
G1 X151.838 Y139.771 E7.61744
G1 X151.618 Y140.231 E7.64288
G1 X151.161 Y141.089 E7.69138
G1 X150.045 Y142.733 E7.79051
G1 X149.333 Y143.571 E7.84537
G1 X148.347 Y144.543 E7.91445
G1 X147.61 Y145.152 E7.96215
G1 X146.537 Y145.9 E8.0274
G1 X145.616 Y146.447 E8.08085
G1 X144.417 Y147.019 E8.14712
G1 X143.006 Y147.525 E8.22191
G1 X141.724 Y147.844 E8.28782
G1 X140.405 Y148.043 E8.35437
G1 X139.332 Y148.108 E8.408
G1 X138.114 Y148.128 E8.46877
G1 X112.307 Y148.122 E9.75629
G1 X111.274 Y148.099 E9.80784
G1 X110.186 Y148.054 E9.86216
G1 X109.29 Y148.003 E9.90694
G1 X106.768 Y147.933 E10.03281
G1 X104.438 Y147.933 E10.14905
G1 X100.898 Y148.048 E10.32576
G1 X99.795 Y148.102 E10.38085
G1 X98.31 Y148.128 E10.45495
G1 X72.511 Y148.122 E11.74207
G1 X71.722 Y148.108 E11.78144
G1 X70.566 Y148.03 E11.83924
G1 X69.669 Y147.898 E11.88448
G1 X68.472 Y147.628 E11.9457
G1 X67.318 Y147.283 E12.00579
G1 X66.423 Y146.933 E12.05373
G1 X65.28 Y146.368 E12.11734
G1 X64.186 Y145.691 E12.18153
G1 X63.27 Y145.002 E12.23871
G1 X62.216 Y144.042 E12.30984
G1 X61.971 Y143.792 E12.3273
G1 X61.106 Y142.813 E12.39248
G1 X60.526 Y142.035 E12.44089
G1 X59.683 Y140.637 E12.52234
G1 X59.413 Y140.112 E12.55179
G1 X58.971 Y139.143 E12.60493
G1 X58.594 Y138.094 E12.66054
G1 X58.258 Y136.8 E12.72724
G1 X58.068 Y135.621 E12.78682
G1 X57.987 Y134.476 E12.84408
G1 X57.971 Y133.433 E12.89612
G1 X57.966 Y86.568 E15.23423
G1 X57.982 Y85.576 E15.28373
G1 X58.04 Y84.618 E15.33161
G1 X58.246 Y83.243 E15.40097
G1 X58.5 Y82.207 E15.45419
G1 X58.884 Y81.072 E15.51397
G1 X59.229 Y80.265 E15.55776
G1 X59.513 Y79.672 E15.59056
G1 X60.017 Y78.733 E15.64373
G1 X60.658 Y77.751 E15.70223
G1 X61.453 Y76.746 E15.76616
G1 X62.194 Y75.964 E15.81991
G1 X63.164 Y75.104 E15.88459
G0 F6000 X63.536 Y75.575
G1 F1200 X63.885 Y75.299 E15.90678
G1 X64.832 Y74.62 E15.96492
G1 X65.611 Y74.153 E16.01023
G1 X66.765 Y73.593 E16.07423
G1 X67.934 Y73.153 E16.13654
G1 X69.173 Y72.81 E16.20068
G1 X70.065 Y72.641 E16.24597
G1 X71.746 Y72.498 E16.33014
G1 X72.936 Y72.478 E16.38952
G1 X98.594 Y72.477 E17.6696
G1 X99.791 Y72.5 E17.72933
G1 X100.778 Y72.541 E17.77862
G1 X101.814 Y72.6 E17.83039
G1 X104.33 Y72.669 E17.95596
G1 X106.731 Y72.668 E18.07574
G1 X109.332 Y72.594 E18.20556
G1 X111.334 Y72.491 E18.30557
G1 X111.922 Y72.477 E18.33492
G1 X138.318 Y72.472 E19.65182
G1 X139.279 Y72.487 E19.69977
G1 X140.357 Y72.558 E19.75367
G1 X141.59 Y72.753 E19.81595
G1 X142.113 Y72.868 E19.84266
G1 X143.192 Y73.162 E19.89846
G1 X144.094 Y73.491 E19.94636
G1 X145.286 Y74.053 E20.01211
G1 X146.46 Y74.763 E20.08055
G1 X146.78 Y74.984 E20.09996
G1 X147.717 Y75.706 E20.15897
G1 X148.569 Y76.499 E20.21704
G1 X149.676 Y77.771 E20.30117
G1 X150.409 Y78.83 E20.36542
G1 X151.035 Y79.948 E20.42935
G1 X151.296 Y80.486 E20.45918
G1 X151.672 Y81.37 E20.50711
G1 X152.052 Y82.537 E20.56834
G1 X152.281 Y83.526 E20.61899
G1 X152.454 Y84.758 E20.68105
G1 X152.499 Y85.485 E20.71739
G1 X152.513 Y86.124 E20.74928
G1 X152.521 Y133.395 E23.10764
G1 X152.506 Y134.377 E23.15664
G1 X152.449 Y135.336 E23.20457
G1 X152.261 Y136.597 E23.26817
G1 X152.023 Y137.578 E23.31854
G1 X151.689 Y138.587 E23.37156
G1 X151.297 Y139.512 E23.42168
G1 X151.088 Y139.949 E23.44585
G1 X150.631 Y140.807 E23.49435
G1 X149.587 Y142.345 E23.58709
G1 X148.911 Y143.144 E23.6393
G1 X147.965 Y144.08 E23.7057
G1 X147.228 Y144.689 E23.7534
G1 X146.23 Y145.385 E23.8141
G1 X145.357 Y145.906 E23.86482
G1 X144.214 Y146.454 E23.92806
G1 X142.803 Y146.96 E24.00284
G1 X141.634 Y147.251 E24.06295
G1 X140.368 Y147.444 E24.12684
G1 X139.322 Y147.508 E24.17912
G1 X138.114 Y147.528 E24.23939
G1 X112.32 Y147.522 E25.52626
G1 X111.299 Y147.5 E25.57721
G1 X110.22 Y147.455 E25.63109
G1 X109.307 Y147.403 E25.67671
G1 X106.785 Y147.333 E25.80259
G1 X104.419 Y147.333 E25.92063
G1 X100.879 Y147.448 E26.09733
G1 X99.784 Y147.502 E26.15203
G1 X98.31 Y147.528 E26.22558
G1 X72.521 Y147.522 E27.51219
G1 X71.761 Y147.509 E27.55012
G1 X70.653 Y147.436 E27.60551
G1 X69.756 Y147.304 E27.65075
G1 X68.643 Y147.053 E27.70767
G1 X67.537 Y146.724 E27.76524
G1 X66.642 Y146.374 E27.81318
G1 X65.595 Y145.857 E27.87144
G1 X64.546 Y145.211 E27.9329
G1 X63.674 Y144.558 E27.98725
G1 X62.645 Y143.622 E28.05665
G1 X62.4 Y143.372 E28.07411
G1 X61.587 Y142.454 E28.13529
G1 X61.007 Y141.676 E28.18371
G1 X60.216 Y140.362 E28.26022
G1 X59.959 Y139.863 E28.28823
G1 X59.517 Y138.894 E28.34136
G1 X59.174 Y137.942 E28.39185
G1 X58.85 Y136.704 E28.45569
G1 X58.667 Y135.579 E28.51255
G1 X58.586 Y134.434 E28.56982
G1 X58.571 Y133.433 E28.61977
G1 X58.566 Y86.577 E30.95742
G1 X58.581 Y85.612 E31.00557
G1 X58.639 Y84.654 E31.05345
G1 X58.829 Y83.386 E31.11742
G1 X59.083 Y82.35 E31.17064
G1 X59.436 Y81.308 E31.22553
G1 X59.781 Y80.501 E31.26931
G1 X60.042 Y79.956 E31.29946
G1 X60.546 Y79.017 E31.35263
G1 X61.16 Y78.08 E31.40852
G1 X61.889 Y77.159 E31.46712
G1 X62.63 Y76.377 E31.52087
G1 X63.536 Y75.575 E31.58123
G0 F6000 X63.933 Y76.025
G1 F1200 X64.235 Y75.786 E31.60045
G1 X65.141 Y75.135 E31.65611
G1 X65.92 Y74.668 E31.70142
G1 X66.976 Y74.155 E31.75999
G1 X68.145 Y73.715 E31.82231
G1 X69.285 Y73.4 E31.88131
G1 X70.177 Y73.231 E31.92661
G1 X71.756 Y73.098 E32.00566
G1 X72.936 Y73.078 E32.06454
G1 X98.583 Y73.077 E33.34407
G1 X99.766 Y73.099 E33.4031
G1 X100.744 Y73.14 E33.45194
G1 X101.798 Y73.2 E33.50461
G1 X104.314 Y73.269 E33.63018
G1 X106.748 Y73.268 E33.75161
G1 X109.349 Y73.194 E33.88143
G1 X111.349 Y73.091 E33.98134
G1 X111.922 Y73.077 E34.00994
G1 X138.309 Y73.072 E35.32639
G1 X139.241 Y73.086 E35.37289
G1 X140.263 Y73.151 E35.42398
G1 X141.496 Y73.346 E35.48626
G1 X141.956 Y73.447 E35.50976
G1 X142.986 Y73.726 E35.563
G1 X143.888 Y74.055 E35.6109
G1 X144.976 Y74.567 E35.67089
G1 X146.119 Y75.257 E35.7375
G1 X146.439 Y75.478 E35.7569
G1 X147.309 Y76.146 E35.81163
G1 X148.117 Y76.894 E35.86656
G1 X149.183 Y78.114 E35.94739
G1 X149.885 Y79.123 E36.00871
G1 X150.511 Y80.241 E36.07264
G1 X150.744 Y80.722 E36.0993
G1 X151.101 Y81.556 E36.14456
G1 X151.481 Y82.723 E36.20579
G1 X151.696 Y83.66 E36.25375
G1 X151.855 Y84.795 E36.31093
G1 X151.899 Y85.498 E36.34607
G1 X151.913 Y86.124 E36.37731
G1 X151.921 Y133.386 E38.73522
G1 X151.907 Y134.341 E38.78287
G1 X151.85 Y135.3 E38.8308
G1 X151.678 Y136.456 E38.88911
G1 X151.453 Y137.389 E38.93699
G1 X151.119 Y138.398 E38.99002
G1 X150.756 Y139.253 E39.03636
G1 X150.558 Y139.667 E39.05925
G1 X150.101 Y140.525 E39.10775
G1 X149.129 Y141.957 E39.1941
G1 X148.453 Y142.756 E39.24631
G1 X147.583 Y143.617 E39.30738
G1 X146.846 Y144.226 E39.35508
G1 X145.921 Y144.871 E39.41134
G1 X145.096 Y145.366 E39.45934
G1 X144.011 Y145.889 E39.51943
G1 X142.6 Y146.395 E39.59421
G1 X141.543 Y146.658 E39.64856
G1 X140.331 Y146.845 E39.70974
G1 X139.312 Y146.908 E39.76067
G1 X138.114 Y146.928 E39.82045
G1 X112.332 Y146.922 E41.10672
G1 X111.324 Y146.901 E41.15702
G1 X110.254 Y146.856 E41.21045
G1 X109.324 Y146.803 E41.25692
G1 X106.802 Y146.733 E41.38279
G1 X104.399 Y146.733 E41.50268
G1 X100.859 Y146.849 E41.67939
G1 X99.773 Y146.902 E41.73363
G1 X98.31 Y146.928 E41.80663
G1 X72.531 Y146.922 E43.09275
G1 X71.799 Y146.91 E43.12928
G1 X70.74 Y146.842 E43.18222
G1 X69.843 Y146.71 E43.22745
G1 X68.813 Y146.478 E43.28013
G1 X67.756 Y146.165 E43.33512
G1 X66.861 Y145.815 E43.38307
G1 X65.908 Y145.345 E43.43608
G1 X64.906 Y144.731 E43.49471
G1 X64.034 Y144.078 E43.54906
G1 X63.074 Y143.202 E43.6139
G1 X62.829 Y142.952 E43.63136
G1 X62.068 Y142.095 E43.68854
G1 X61.488 Y141.317 E43.73696
G1 X60.749 Y140.087 E43.80855
G1 X60.505 Y139.614 E43.8351
G1 X60.063 Y138.645 E43.88823
G1 X59.739 Y137.74 E43.93619
G1 X59.442 Y136.607 E43.99463
G1 X59.266 Y135.537 E44.04873
G1 X59.185 Y134.392 E44.10599
G1 X59.171 Y133.433 E44.15384
G1 X59.166 Y86.586 E46.49105
G1 X59.18 Y85.648 E46.53785
G1 X59.238 Y84.69 E46.58573
G1 X59.412 Y83.529 E46.6443
G1 X59.666 Y82.493 E46.69752
G1 X59.988 Y81.544 E46.74752
G1 X60.333 Y80.737 E46.7913
G1 X60.571 Y80.239 E46.81884
G1 X61.049 Y79.345 E46.86942
G1 X61.631 Y78.452 E46.9226
G1 X62.325 Y77.572 E46.97851
G1 X63.066 Y76.79 E47.03226
G1 X63.933 Y76.025 E47.08994
G0 F6000 X64.307 Y76.495
G1 F1200 X64.586 Y76.273 E47.10773
G1 X65.45 Y75.65 E47.16087
G1 X66.229 Y75.183 E47.20619
G1 X67.188 Y74.716 E47.2594
G1 X68.306 Y74.293 E47.31904
G1 X69.397 Y73.99 E47.37553
G1 X70.289 Y73.821 E47.42082
G1 X71.766 Y73.698 E47.49476
G1 X72.936 Y73.678 E47.55314
G1 X98.572 Y73.677 E48.83213
G1 X99.741 Y73.698 E48.89046
G1 X100.71 Y73.739 E48.93885
G1 X101.782 Y73.8 E48.99242
G1 X104.298 Y73.869 E49.11799
G1 X106.765 Y73.868 E49.24107
G1 X109.366 Y73.794 E49.37088
G1 X111.364 Y73.691 E49.4707
G1 X111.922 Y73.677 E49.49854
G1 X138.3 Y73.672 E50.81455
G1 X139.204 Y73.685 E50.85965
G1 X140.169 Y73.744 E50.90789
G1 X141.402 Y73.939 E50.97017
G1 X141.8 Y74.026 E50.99049
G1 X142.78 Y74.29 E51.04113
G1 X143.682 Y74.619 E51.08903
G1 X144.666 Y75.081 E51.14326
G1 X145.778 Y75.751 E51.20803
G1 X146.098 Y75.972 E51.22743
G1 X146.903 Y76.588 E51.278
G1 X147.666 Y77.29 E51.32973
G1 X148.691 Y78.458 E51.40726
G1 X149.361 Y79.416 E51.46558
G1 X149.987 Y80.534 E51.52951
G1 X150.192 Y80.958 E51.55301
G1 X150.549 Y81.792 E51.59827
G1 X150.896 Y82.857 E51.65415
G1 X151.111 Y83.794 E51.70211
G1 X151.256 Y84.833 E51.75445
G1 X151.299 Y85.512 E51.78839
G1 X151.313 Y86.124 E51.81893
G1 X151.321 Y133.378 E54.17644
G1 X151.308 Y134.305 E54.2227
G1 X151.251 Y135.264 E54.27063
G1 X151.094 Y136.317 E54.32374
G1 X150.883 Y137.2 E54.36903
G1 X150.549 Y138.209 E54.42206
G1 X150.204 Y139.017 E54.46589
G1 X150.028 Y139.385 E54.48624
G1 X149.571 Y140.243 E54.53474
G1 X148.671 Y141.569 E54.6147
G1 X147.995 Y142.368 E54.66691
G1 X147.2 Y143.155 E54.72272
G1 X146.502 Y143.734 E54.76797
G1 X145.611 Y144.357 E54.82221
G1 X144.834 Y144.826 E54.86749
G1 X143.808 Y145.324 E54.92438
G1 X142.397 Y145.83 E54.99917
G1 X141.4 Y146.075 E55.05039
G1 X140.294 Y146.246 E55.10622
G1 X139.302 Y146.308 E55.15581
G1 X138.114 Y146.328 E55.21509
G1 X112.344 Y146.322 E56.50076
G1 X111.349 Y146.302 E56.55041
G1 X110.288 Y146.257 E56.60339
G1 X109.341 Y146.203 E56.65071
G1 X106.819 Y146.133 E56.77659
G1 X104.379 Y146.133 E56.89832
G1 X100.839 Y146.25 E57.07503
G1 X99.762 Y146.302 E57.12882
G1 X98.31 Y146.328 E57.20127
G1 X72.54 Y146.322 E58.48694
G1 X71.836 Y146.311 E58.52207
G1 X70.827 Y146.248 E58.57251
G1 X69.93 Y146.116 E58.61774
G1 X68.982 Y145.902 E58.66623
G1 X67.975 Y145.606 E58.71859
G1 X67.08 Y145.256 E58.76654
G1 X66.22 Y144.833 E58.81435
G1 X65.264 Y144.25 E58.87021
G1 X64.438 Y143.635 E58.92159
G1 X63.503 Y142.782 E58.98473
G1 X63.258 Y142.532 E59.0022
G1 X62.549 Y141.736 E59.05538
G1 X61.969 Y140.958 E59.10379
G1 X61.264 Y139.779 E59.17233
G1 X61.05 Y139.364 E59.19562
G1 X60.628 Y138.443 E59.24617
G1 X60.304 Y137.538 E59.29412
G1 X60.034 Y136.508 E59.34725
G1 X59.865 Y135.495 E59.39848
G1 X59.784 Y134.35 E59.45575
G1 X59.771 Y133.433 E59.5015
G1 X59.766 Y86.595 E61.83826
G1 X59.779 Y85.684 E61.88372
G1 X59.837 Y84.726 E61.9316
G1 X59.995 Y83.671 E61.98482
G1 X60.235 Y82.685 E62.03545
G1 X60.54 Y81.78 E62.08309
G1 X60.885 Y80.973 E62.12688
G1 X61.101 Y80.521 E62.15187
G1 X61.552 Y79.673 E62.19979
G1 X62.134 Y78.78 E62.25297
G1 X62.761 Y77.984 E62.30352
G1 X63.463 Y77.24 E62.35455
G1 X64.307 Y76.495 E62.41072
G0 F6000 X64.681 Y76.965
G1 F1200 X64.96 Y76.743 E62.42851
G1 X65.759 Y76.165 E62.47771
G1 X66.538 Y75.698 E62.52302
G1 X67.45 Y75.256 E62.57358
G1 X68.467 Y74.871 E62.62783
G1 X69.509 Y74.58 E62.68181
G1 X70.401 Y74.411 E62.7271
G1 X71.776 Y74.298 E62.79593
G1 X72.936 Y74.278 E62.85381
G1 X98.562 Y74.277 E64.1323
G1 X99.715 Y74.297 E64.18983
G1 X100.676 Y74.338 E64.23782
G1 X101.766 Y74.4 E64.29229
G1 X104.282 Y74.469 E64.41786
G1 X106.782 Y74.468 E64.54259
G1 X109.383 Y74.394 E64.6724
G1 X111.379 Y74.291 E64.77212
G1 X111.922 Y74.277 E64.79922
G1 X138.292 Y74.272 E66.11482
G1 X139.169 Y74.284 E66.15858
G1 X140.075 Y74.337 E66.20386
G1 X141.308 Y74.532 E66.26613
G1 X141.645 Y74.606 E66.28335
G1 X142.574 Y74.854 E66.33132
G1 X143.476 Y75.183 E66.37922
G1 X144.356 Y75.595 E66.4277
G1 X145.468 Y76.265 E66.49247
G1 X145.734 Y76.449 E66.5086
G1 X146.498 Y77.031 E66.55652
G1 X147.216 Y77.687 E66.60504
G1 X148.2 Y78.803 E66.67927
G1 X148.837 Y79.709 E66.73452
G1 X149.463 Y80.827 E66.79845
G1 X149.64 Y81.194 E66.81878
G1 X149.997 Y82.028 E66.86404
G1 X150.311 Y82.991 E66.91457
G1 X150.526 Y83.928 E66.96253
G1 X150.657 Y84.871 E67.01003
G1 X150.699 Y85.526 E67.04278
G1 X150.713 Y86.124 E67.07262
G1 X150.721 Y133.37 E69.42973
G1 X150.709 Y134.269 E69.47459
G1 X150.652 Y135.228 E69.52252
G1 X150.51 Y136.178 E69.57044
G1 X150.299 Y137.061 E69.61573
G1 X149.98 Y138.019 E69.66611
G1 X149.662 Y138.759 E69.70629
G1 X149.498 Y139.103 E69.7253
G1 X149.041 Y139.961 E69.7738
G1 X148.213 Y141.181 E69.84736
G1 X147.537 Y141.98 E69.89958
G1 X146.817 Y142.693 E69.95013
G1 X146.119 Y143.272 E69.99538
G1 X145.301 Y143.843 E70.04515
G1 X144.524 Y144.312 E70.09042
G1 X143.604 Y144.76 E70.14148
G1 X142.254 Y145.247 E70.21308
G1 X141.257 Y145.492 E70.2643
G1 X140.256 Y145.647 E70.31483
G1 X139.292 Y145.708 E70.36302
G1 X138.114 Y145.728 E70.4218
G1 X112.356 Y145.722 E71.70687
G1 X111.375 Y145.703 E71.75582
G1 X110.322 Y145.658 E71.80841
G1 X109.358 Y145.603 E71.85658
G1 X106.836 Y145.533 E71.98245
G1 X104.359 Y145.533 E72.10603
G1 X100.819 Y145.651 E72.28274
G1 X99.751 Y145.702 E72.33608
G1 X98.31 Y145.728 E72.40799
G1 X72.549 Y145.722 E73.69321
G1 X71.872 Y145.712 E73.72699
G1 X70.914 Y145.654 E73.77487
G1 X70.017 Y145.522 E73.8201
G1 X69.15 Y145.326 E73.86445
G1 X68.194 Y145.047 E73.91413
G1 X67.299 Y144.697 E73.96208
G1 X66.486 Y144.295 E74.00733
G1 X65.621 Y143.768 E74.05786
G1 X64.842 Y143.191 E74.10622
